X:2
%%scale 0.85
T:Out from the deep
T:Treble Viol
C:Thomas Tallis
%%measurenb 0
L:1/4
M:4/4
K:C
G2 A A | G G _B B | A/G/A/B/ c3/2 B/ | A G G ^F |  
w:Out from the deep I call to thee: O Lord_ hear my in- vo- ca- ti-
G2 z G |  G A B G | c3/2 c/ B G | A3/2 A/ A G |  G3/2 G/ G2- | G2 z c |
w: on. Thine ears bow down, in- cline to me and hear my la- men- ta- ti- on._ For
 c G B A | c3/2 c/ G z | z c c G | B A c B | 
w: if thou wilt our sins be- hold, that we have done from time to
A2 G2- | G2 z C |  F3/2 F/ E E | D D C2 | 
w:_ tide._ O Lord who then dare be so bold
z G c3/2 c/ | B2 B A- | A/G/ G2 ^F |  G2 G2- | G2 G2- |
w: as in thy sight for to_ a- bide. For to a - bide.
 G2 z c | c G B A |  c3/2 c/ G z | z c c G |  B A c B |
w:_ For if thou wilt our sins be- hold, that we have done from time to
 A2 G2- | G2 z C | F3/2 F/ E E | D D C2 |  z G c3/2 c/ |
w:_ tide._ O Lord, who then dare be so bold as in thy
 B2 B A- | A/G/ G2 ^F | G2 G2- | G2 G2- | HG4 |] %38
w: sight for to_ a- bide, for to a - bide._

